icon/fa/bullhorn.svg

<svg xmlns="http://www.w3.org/2000/svg" viewBox="0 0 512 512"><!--! Font Awesome Free 6.1.2 by @fontawesome - https://fontawesome.com License - https://fontawesome.com/license/free (Icons: CC BY 4.0, Fonts: SIL OFL 1.1, Code: MIT License) Copyright 2022 Fonticons, Inc.--><path d="M480 179.6c18.6 8.8 32 32.5 32 60.4s-13.4 51.6-32 60.4V448c0 12.9-7.8 24.6-19.8 29.6-11.9 4.9-25.7 2.2-34.8-7l-43.7-44.5c-48-48-113.1-74.1-181-74.1H192v128c0 17.7-14.3 32-32 32H96c-17.67 0-32-14.3-32-32V352c-35.35 0-64-28.7-64-64v-96c0-35.3 28.65-64 64-64h136.7c67.9 0 133-27 181-74.98l43.7-43.647c9.1-9.151 22.9-11.889 34.8-6.936C472.2 7.39 480 19.06 480 32v147.6zM200.7 192H192v96h8.7c79.8 0 156.5 29.8 215.3 83.3V108.7C357.2 162.2 280.5 192 200.7 192z"/></svg>

<svg xmlns="http://www.w3.org/2000/svg" viewBox="0 0 512 512" height="1em" width="1em">
<!--! Font Awesome Free 6.1.2 by @fontawesome - https://fontawesome.com License - https://fontawesome.com/license/free (Icons: CC BY 4.0, Fonts: SIL OFL 1.1, Code: MIT License) Copyright 2022 Fonticons, Inc.-->
  <path d="M480 179.6C498.6 188.4 512 212.1 512 240C512 267.9 498.6 291.6 480 300.4V448C480 460.9 472.2 472.6 460.2 477.6C448.3 482.5 434.5 479.8 425.4 470.6L381.7 426.1C333.7 378.1 268.6 352 200.7 352H192V480C192 497.7 177.7 512 160 512H96C78.33 512 64 497.7 64 480V352C28.65 352 0 323.3 0 288V192C0 156.7 28.65 128 64 128H200.7C268.6 128 333.7 101 381.7 53.02L425.4 9.373C434.5 .2215 448.3-2.516 460.2 2.437C472.2 7.39 480 19.06 480 32V179.6zM200.7 192H192V288H200.7C280.5 288 357.2 317.8 416 371.3V108.7C357.2 162.2 280.5 192 200.7 192V192z"/>
</svg>
